communes/6636.svg

<?xml version="1.0" encoding="UTF-8" standalone="no"?>
<svg
   xmlns:i="http://ns.adobe.com/AdobeIllustrator/10.0/"
   xmlns:dc="http://purl.org/dc/elements/1.1/"
   xmlns:cc="http://web.resource.org/cc/"
   xmlns:rdf="http://www.w3.org/1999/02/22-rdf-syntax-ns#"
   xmlns:svg="http://www.w3.org/2000/svg"
   xmlns="http://www.w3.org/2000/svg"
   xmlns:xlink="http://www.w3.org/1999/xlink"
   xmlns:sodipodi="http://sodipodi.sourceforge.net/DTD/sodipodi-0.dtd"
   xmlns:inkscape="http://www.inkscape.org/namespaces/inkscape"
   height="763"
   width="603"
   version="1.0"
   id="svg20"
   sodipodi:version="0.32"
   inkscape:version="0.44"
   sodipodi:docname="Puplinge-coat_of_arms.svg"
   sodipodi:docbase="C:\Documents and Settings\Steve\Bureau\Blason Villages Suisse pour Wikipédia (par Delta-9)\GE">
  <metadata
     id="metadata31">
    <rdf:RDF>
      <cc:Work
         rdf:about="">
        <dc:format>image/svg+xml</dc:format>
        <dc:type
           rdf:resource="http://purl.org/dc/dcmitype/StillImage" />
        <dc:date>07-AUG-2006</dc:date>
        <dc:creator>
          <cc:Agent>
            <dc:title>Jérôme BLUM (wagner51)</dc:title>
          </cc:Agent>
        </dc:creator>
        <cc:license
           rdf:resource="http://creativecommons.org/licenses/GPL/2.0/" />
        <dc:coverage />
        <dc:description>Gabarit pour le Projet:Blasons de WIkipédia</dc:description>
        <dc:subject>
          <rdf:Bag>
            <rdf:li>blason suisse modèle gabarit projet blasons</rdf:li>
          </rdf:Bag>
        </dc:subject>
        <dc:language>fr</dc:language>
        <dc:title>Gabrit d'un blason suisse</dc:title>
      </cc:Work>
      <cc:License
         rdf:about="http://creativecommons.org/licenses/GPL/2.0/">
        <cc:permits
           rdf:resource="http://web.resource.org/cc/Reproduction" />
        <cc:permits
           rdf:resource="http://web.resource.org/cc/Distribution" />
        <cc:requires
           rdf:resource="http://web.resource.org/cc/Notice" />
        <cc:permits
           rdf:resource="http://web.resource.org/cc/DerivativeWorks" />
        <cc:requires
           rdf:resource="http://web.resource.org/cc/ShareAlike" />
        <cc:requires
           rdf:resource="http://web.resource.org/cc/SourceCode" />
      </cc:License>
    </rdf:RDF>
  </metadata>
  <defs
     id="defs29"><linearGradient
   id="linearGradient2893">
  <stop
     style="stop-color:#ffffff;stop-opacity:0.3137255;"
     offset="0"
     id="stop2895" />
  <stop
     id="stop2897"
     offset="0.19"
     style="stop-color:#ffffff;stop-opacity:0.25098041;" />
  <stop
     style="stop-color:#6b6b6b;stop-opacity:0.1254902;"
     offset="0.60000002"
     id="stop2901" />
  <stop
     style="stop-color:#000000;stop-opacity:0.1254902;"
     offset="1"
     id="stop2899" />
</linearGradient>
<linearGradient
   id="linearGradient2955">
  <stop
     style="stop-color:white;stop-opacity:0;"
     offset="0"
     id="stop2965" />
  <stop
     style="stop-color:black;stop-opacity:0.64583331;"
     offset="1"
     id="stop2959" />
</linearGradient>
<radialGradient
   inkscape:collect="always"
   xlink:href="#linearGradient2893"
   id="radialGradient3236"
   gradientUnits="userSpaceOnUse"
   gradientTransform="matrix(1.215027,1.531577e-24,1.464684e-23,1.266667,-839.1924,-490.4894)"
   cx="858.04236"
   cy="579.93323"
   fx="858.04236"
   fy="579.93323"
   r="300" />

			<foreignObject
   requiredExtensions="http://ns.adobe.com/AdobeIllustrator/10.0/"
   x="0"
   y="0"
   width="1"
   height="1"
   id="foreignObject2845">
				<i:pgfRef
   xlink:href="#adobe_illustrator_pgf">
				</i:pgfRef>

			</foreignObject>

			
		
				
			
					
					
					
					
					
						 
				</defs>
  <sodipodi:namedview
     inkscape:window-height="691"
     inkscape:window-width="939"
     inkscape:pageshadow="2"
     inkscape:pageopacity="0.0"
     guidetolerance="10.0"
     gridtolerance="10.0"
     objecttolerance="10.0"
     borderopacity="1.0"
     bordercolor="#666666"
     pagecolor="#ffffff"
     id="base"
     inkscape:zoom="0.39950425"
     inkscape:cx="114.49575"
     inkscape:cy="421.3664"
     inkscape:window-x="20"
     inkscape:window-y="42"
     inkscape:current-layer="layer2"
     showgrid="false"
     showguides="true"
     inkscape:guide-bbox="true" />
  <desc
     id="desc22">Coat of Arms of Canton of Freiburg (Fribourg)</desc>
  <g
     inkscape:groupmode="layer"
     id="layer1"
     inkscape:label="Fond écu"
     style="opacity:1"
     sodipodi:insensitive="true">
    <path
       id="path1899"
       d="M 1.5,1.49998 L 1.5,460.3679 C 1.5,626.6785 135.81456,761.5 301.49999,761.5 C 467.18543,761.5 601.5,626.6785 601.5,460.3679 L 601.5,1.49998 L 1.5,1.49998 z "
       style="fill:#2b5df2;fill-opacity:1" />
  </g>
  <g
     inkscape:groupmode="layer"
     id="layer2"
     inkscape:label="Meubles"
     style="opacity:1"
     sodipodi:insensitive="true">
    <path
       style="fill:white;stroke:black;stroke-width:2.75;stroke-linecap:round;stroke-linejoin:round;stroke-miterlimit:4;stroke-dasharray:none"
       d="M 20.21875,158.9375 C 12.955849,158.9375 6.8560847,159.49035 1.5,160.40625 L 1.5,280.9375 C 6.8562574,280.0216 12.955439,279.46875 20.21875,279.46875 C 64.252733,279.46875 66.332573,299.625 110.21875,299.625 C 154.10493,299.625 156.18601,279.46875 200.21875,279.46875 C 211.18378,279.46875 219.53878,280.71615 226.59375,282.59375 L 226.59375,162.0625 C 219.53877,160.18353 211.18253,158.9375 200.21875,158.9375 C 156.18602,158.93614 154.10368,179.09375 110.21875,179.09375 C 66.332577,179.09375 64.251489,158.9375 20.21875,158.9375 z M 402.78125,158.9375 C 391.81623,158.9375 383.45999,160.1849 376.40625,162.0625 L 376.40625,282.59375 C 383.46124,280.71479 391.81622,279.46875 402.78125,279.46875 C 446.81399,279.46875 448.89509,299.625 492.78125,299.625 C 536.66743,299.62501 538.74852,279.46875 582.78125,279.46875 C 590.04436,279.46875 596.14378,280.0216 601.5,280.9375 L 601.5,160.40625 C 596.14386,159.4903 590.04415,158.9375 582.78125,158.9375 C 538.74852,158.9375 536.66743,179.09375 492.78125,179.09375 C 448.89509,179.09376 446.81274,158.9375 402.78125,158.9375 z M 20.21875,421.6875 C 12.955849,421.6875 6.8560847,422.24035 1.5,423.15625 L 1.5,460.375 C 1.5,488.82472 5.4357207,516.34796 12.78125,542.4375 C 15.127585,542.30235 17.59151,542.21875 20.21875,542.21875 C 64.252733,542.21877 66.332573,562.40625 110.21875,562.40625 C 154.10493,562.40627 156.18601,542.21875 200.21875,542.21875 C 211.18378,542.21877 219.53878,543.46478 226.59375,545.34375 L 226.59375,424.8125 C 219.53877,422.9349 211.18253,421.6875 200.21875,421.6875 C 156.18602,421.6875 154.10368,441.84375 110.21875,441.84375 C 66.332577,441.84375 64.251489,421.6875 20.21875,421.6875 z M 402.78125,421.6875 C 391.81623,421.6875 383.45999,422.9349 376.40625,424.8125 L 376.40625,545.34375 C 383.46124,543.46477 391.81622,542.21875 402.78125,542.21875 C 446.81399,542.21877 448.89509,562.40625 492.78125,562.40625 C 536.66743,562.40627 538.74852,542.21875 582.78125,542.21875 C 585.40842,542.21875 587.87246,542.30235 590.21875,542.4375 C 597.56428,516.34796 601.5,488.82472 601.5,460.375 L 601.5,423.15625 C 596.14386,422.24035 590.04415,421.6875 582.78125,421.6875 C 538.74852,421.6875 536.66743,441.84375 492.78125,441.84375 C 448.89509,441.84375 446.81274,421.6875 402.78125,421.6875 z "
       id="path2850" />
    <path
       style="fill:#fcef3c;stroke:black;stroke-width:2.75;stroke-linecap:round;stroke-linejoin:round;stroke-miterlimit:4;stroke-dasharray:none"
       d="M 213.59375,1.5 L 213.59375,748.34375 C 241.39581,756.88385 270.91175,761.5 301.5,761.5 C 332.08825,761.5 361.60419,756.88385 389.40625,748.34375 L 389.40625,1.5 L 213.59375,1.5 z "
       id="rect2858" />
  </g>
  <g
     inkscape:groupmode="layer"
     id="layer3"
     inkscape:label="Reflet final"
     style="display:inline"
     sodipodi:insensitive="true">
    <path
       style="fill:url(#radialGradient3236);fill-opacity:1"
       d="M 1.5,1.5 L 1.5,460.3679 C 1.5,626.67854 135.81454,761.5 301.49993,761.5 C 467.1854,761.5 601.5,626.67854 601.5,460.3679 L 601.5,1.5 L 1.5,1.5 z "
       id="path2346" />
  </g>
  <g
     inkscape:groupmode="layer"
     id="layer4"
     inkscape:label="Contour final"
     style="display:inline"
     sodipodi:insensitive="true">
    <path
       style="fill:none;fill-opacity:1;stroke:#000000;stroke-width:3;stroke-miterlimit:4;stroke-dasharray:none;stroke-opacity:1"
       d="M 1.5,1.5 L 1.5,460.36794 C 1.5,626.67854 135.81454,761.5 301.49993,761.5 C 467.1854,761.5 601.5,626.67854 601.5,460.36794 L 601.5,1.5 L 1.5,1.5 z "
       id="path3239" />
  </g>
</svg>

<?xml version="1.0" encoding="UTF-8"?>
<svg version="1.0" viewBox="0 0 603 763" xmlns="http://www.w3.org/2000/svg" xmlns:cc="http://web.resource.org/cc/" xmlns:dc="http://purl.org/dc/elements/1.1/" xmlns:rdf="http://www.w3.org/1999/02/22-rdf-syntax-ns#" xmlns:xlink="http://www.w3.org/1999/xlink">
<metadata>
<rdf:RDF>
<cc:Work rdf:about="">
<dc:format>image/svg+xml</dc:format>
<dc:type rdf:resource="http://purl.org/dc/dcmitype/StillImage"/>
<dc:date>07-AUG-2006</dc:date>
<dc:creator>
<cc:Agent>
<dc:title>Jérôme BLUM (wagner51)</dc:title>
</cc:Agent>
</dc:creator>
<cc:license rdf:resource="http://creativecommons.org/licenses/GPL/2.0/"/>
<dc:coverage/>
<dc:description>Gabarit pour le Projet:Blasons de WIkipédia</dc:description>
<dc:subject>
<rdf:Bag>
<rdf:li>blason suisse modèle gabarit projet blasons</rdf:li>
</rdf:Bag>
</dc:subject>
<dc:language>fr</dc:language>
<dc:title>Gabrit d'un blason suisse</dc:title>
</cc:Work>
<cc:License rdf:about="http://creativecommons.org/licenses/GPL/2.0/">
<cc:permits rdf:resource="http://web.resource.org/cc/Reproduction"/>
<cc:permits rdf:resource="http://web.resource.org/cc/Distribution"/>
<cc:requires rdf:resource="http://web.resource.org/cc/Notice"/>
<cc:permits rdf:resource="http://web.resource.org/cc/DerivativeWorks"/>
<cc:requires rdf:resource="http://web.resource.org/cc/ShareAlike"/>
<cc:requires rdf:resource="http://web.resource.org/cc/SourceCode"/>
</cc:License>
</rdf:RDF>
</metadata>
<defs>
<radialGradient id="a" cx="858.04" cy="579.93" r="300" gradientTransform="matrix(1.215 1.5316e-24 1.4647e-23 1.2667 -839.19 -490.49)" gradientUnits="userSpaceOnUse">
<stop stop-color="#fff" stop-opacity=".31373" offset="0"/>
<stop stop-color="#fff" stop-opacity=".25098" offset=".19"/>
<stop stop-color="#6b6b6b" stop-opacity=".12549" offset=".6"/>
<stop stop-opacity=".12549" offset="1"/>
</radialGradient>
</defs>
<desc>Coat of Arms of Canton of Freiburg (Fribourg)</desc>
<g>
<path d="m1.5 1.5v458.87c0 166.31 134.31 301.13 300 301.13 165.69 0 300-134.82 300-301.13v-458.87h-600z" fill="#2b5df2"/>
<path d="m20.219 158.94c-7.2629 0-13.363 0.55285-18.719 1.4688v120.53c5.3563-0.9159 11.455-1.4688 18.719-1.4688 44.034 0 46.114 20.156 90 20.156 43.886 0 45.967-20.156 90-20.156 10.965 0 19.32 1.2474 26.375 3.125v-120.53c-7.055-1.879-15.411-3.125-26.375-3.125-44.033-0.00136-46.115 20.156-90 20.156-43.886 0-45.967-20.156-90-20.156zm382.56 0c-10.965 0-19.321 1.2474-26.375 3.125v120.53c7.055-1.879 15.41-3.125 26.375-3.125 44.033 0 46.114 20.156 90 20.156 43.886 1e-5 45.967-20.156 90-20.156 7.2631 0 13.363 0.55285 18.719 1.4688v-120.53c-5.3561-0.91595-11.456-1.4688-18.719-1.4688-44.033 0-46.114 20.156-90 20.156-43.886 1e-5 -45.969-20.156-90-20.156zm-382.56 262.75c-7.2629 0-13.363 0.55285-18.719 1.4688v37.219c0 28.45 3.9357 55.973 11.281 82.062 2.3463-0.13515 4.8103-0.21875 7.4375-0.21875 44.034 2e-5 46.114 20.188 90 20.188 43.886 2e-5 45.967-20.188 90-20.188 10.965 2e-5 19.32 1.246 26.375 3.125v-120.53c-7.055-1.8776-15.411-3.125-26.375-3.125-44.033 0-46.115 20.156-90 20.156-43.886 0-45.967-20.156-90-20.156zm382.56 0c-10.965 0-19.321 1.2474-26.375 3.125v120.53c7.055-1.879 15.41-3.125 26.375-3.125 44.033 2e-5 46.114 20.188 90 20.188 43.886 2e-5 45.967-20.188 90-20.188 2.6272 0 5.0912 0.0836 7.4375 0.21875 7.3455-26.09 11.281-53.613 11.281-82.062v-37.219c-5.3561-0.9159-11.456-1.4688-18.719-1.4688-44.033 0-46.114 20.156-90 20.156-43.886 0-45.969-20.156-90-20.156z" fill="#fff" stroke="#000" stroke-linecap="round" stroke-linejoin="round" stroke-width="2.75"/>
<path d="m213.59 1.5v746.84c27.802 8.5401 57.318 13.156 87.906 13.156s60.104-4.6162 87.906-13.156v-746.84h-175.81z" fill="#fcef3c" stroke="#000" stroke-linecap="round" stroke-linejoin="round" stroke-width="2.75"/>
</g>
<g>
<path d="m1.5 1.5v458.87c0 166.31 134.31 301.13 300 301.13 165.69 0 300-134.82 300-301.13v-458.87h-600z" fill="url(#a)"/>
<path d="m1.5 1.5v458.87c0 166.31 134.31 301.13 300 301.13 165.69 0 300-134.82 300-301.13v-458.87h-600z" fill="none" stroke="#000" stroke-width="3"/>
</g>
</svg>
